application/static/images/clear-icons/bus.svg

<?xml version="1.0" encoding="UTF-8" standalone="no"?>
<svg
   xmlns:dc="http://purl.org/dc/elements/1.1/"
   xmlns:cc="http://creativecommons.org/ns#"
   xmlns:rdf="http://www.w3.org/1999/02/22-rdf-syntax-ns#"
   xmlns:svg="http://www.w3.org/2000/svg"
   xmlns="http://www.w3.org/2000/svg"
   id="svg8"
   version="1.1"
   viewBox="0 0 129.99982 152.452"
   height="152.452mm"
   width="129.99982mm">
  <defs
     id="defs2" />
  <metadata
     id="metadata5">
    <rdf:RDF>
      <cc:Work
         rdf:about="">
        <dc:format>image/svg+xml</dc:format>
        <dc:type
           rdf:resource="http://purl.org/dc/dcmitype/StillImage" />
        <dc:title></dc:title>
      </cc:Work>
    </rdf:RDF>
  </metadata>
  <g
     style="fill:#c5c5c5;fill-opacity:1"
     transform="translate(120.72803,-18.695499)"
     id="layer1">
    <path
       id="rect815"
       transform="matrix(0.26458333,0,0,0.26458333,-120.72803,18.695499)"
       d="M 120.94531,0 C 58.129576,0 9.2683484,50.59419 7.5605469,113.38672 L 0,411.33789 H 0.39648438 C 0.13961228,413.12382 0,414.94935 0,416.80859 v 51.6875 c 0,20.93859 16.856339,37.79688 37.794922,37.79688 h 35.949219 v 54.78515 c 0,8.37544 6.743707,15.11915 15.11914,15.11915 h 35.820309 c 8.37544,0 15.11719,-6.74371 15.11719,-15.11915 v -54.78515 h 211.73633 v 54.78515 c 0,8.37544 6.74175,15.11915 15.11719,15.11915 h 35.82031 c 8.37543,0 15.11914,-6.74371 15.11914,-15.11915 v -54.78515 h 35.94922 c 20.93858,0 37.79492,-16.85829 37.79492,-37.79688 v -51.6875 c 0,-1.85917 -0.13768,-3.68483 -0.39453,-5.4707 h 0.39453 L 483.7793,113.38672 C 482.18641,50.591169 433.20833,0 370.39258,0 Z m 13.16016,43.435547 h 223.12695 c 9.42236,0 17.00781,8.429149 17.00781,18.898437 v 19.347657 c 0,10.469288 -7.58545,18.896479 -17.00781,18.896479 H 134.10547 c -9.42236,0 -17.00781,-8.427191 -17.00781,-18.896479 V 62.333984 c 0,-10.469288 7.58545,-18.898437 17.00781,-18.898437 z M 72.320312,126.68164 H 419.01758 c 14.76206,0 26.64648,12.81492 26.64648,28.73242 v 172.14649 c 0,15.9175 -11.88442,28.73242 -26.64648,28.73242 H 72.320312 c -14.762059,0 -26.646484,-12.81492 -26.646484,-28.73242 V 155.41406 c 0,-15.9175 11.884425,-28.73242 26.646484,-28.73242 z m 5.402344,273.89648 h 38.750004 c 6.28157,0 11.33984,5.05827 11.33984,11.33985 v 38.75 c 0,6.28157 -5.05827,11.33984 -11.33984,11.33984 H 77.722656 c -6.281575,0 -11.339843,-5.05827 -11.339844,-11.33984 v -38.75 c 10e-7,-6.28158 5.058269,-11.33985 11.339844,-11.33985 z m 297.142574,0 h 38.75 c 6.28158,0 11.33985,5.05827 11.33985,11.33985 v 38.75 c 0,6.28157 -5.05827,11.33984 -11.33985,11.33984 h -38.75 c -6.28157,0 -11.33984,-5.05827 -11.33984,-11.33984 v -38.75 c 0,-6.28158 5.05827,-11.33985 11.33984,-11.33985 z m -216.8457,6.22071 h 175.29883 c 2.09386,0 3.7793,1.68546 3.7793,3.77929 0,2.09386 -1.68544,3.7793 -3.7793,3.7793 H 158.01953 c -2.09386,0 -3.7793,-1.68544 -3.7793,-3.7793 0,-2.09383 1.68544,-3.77929 3.7793,-3.77929 z m 0,41.42969 h 175.29883 c 2.09386,0 3.7793,1.68543 3.7793,3.77929 0,2.09386 -1.68544,3.7793 -3.7793,3.7793 H 158.01953 c -2.09386,0 -3.7793,-1.68544 -3.7793,-3.7793 0,-2.09386 1.68544,-3.77929 3.7793,-3.77929 z"
       style="opacity:1;vector-effect:none;fill:#c5c5c5;fill-opacity:1;stroke:none;stroke-width:5;stroke-linecap:round;stroke-linejoin:round;stroke-miterlimit:4;stroke-dasharray:none;stroke-dashoffset:0;stroke-opacity:1;paint-order:fill markers stroke" />
  </g>
</svg>

<?xml version="1.0" encoding="UTF-8" standalone="no"?>
<svg
   xmlns:dc="http://purl.org/dc/elements/1.1/"
   xmlns:cc="http://creativecommons.org/ns#"
   xmlns:rdf="http://www.w3.org/1999/02/22-rdf-syntax-ns#"
   xmlns:svg="http://www.w3.org/2000/svg"
   xmlns="http://www.w3.org/2000/svg"
   id="svg8"
   version="1.1"
   viewBox="0 0 129.99982 152.452"
   height="152.452mm"
   width="129.99982mm">
  <defs
     id="defs2" />
  <metadata
     id="metadata5">
    <rdf:RDF>
      <cc:Work
         rdf:about="">
        <dc:format>image/svg+xml</dc:format>
        <dc:type
           rdf:resource="http://purl.org/dc/dcmitype/StillImage" />
        <dc:title></dc:title>
      </cc:Work>
    </rdf:RDF>
  </metadata>
  <g
     transform="translate(120.72803,-18.695499)"
     id="layer1">
    <path
       id="rect815"
       transform="matrix(0.26458333,0,0,0.26458333,-120.72803,18.695499)"
       d="M 120.94531 0 C 58.129576 0 9.2683484 50.59419 7.5605469 113.38672 L 0 411.33789 L 0.39648438 411.33789 C 0.13961228 413.12382 -1.4802974e-16 414.94935 0 416.80859 L 0 468.49609 C 0 489.43468 16.856339 506.29297 37.794922 506.29297 L 73.744141 506.29297 L 73.744141 561.07812 C 73.744141 569.45356 80.487848 576.19727 88.863281 576.19727 L 124.68359 576.19727 C 133.05903 576.19727 139.80078 569.45356 139.80078 561.07812 L 139.80078 506.29297 L 351.53711 506.29297 L 351.53711 561.07812 C 351.53711 569.45356 358.27886 576.19727 366.6543 576.19727 L 402.47461 576.19727 C 410.85004 576.19727 417.59375 569.45356 417.59375 561.07812 L 417.59375 506.29297 L 453.54297 506.29297 C 474.48155 506.29297 491.33789 489.43468 491.33789 468.49609 L 491.33789 416.80859 C 491.33789 414.94942 491.20021 413.12376 490.94336 411.33789 L 491.33789 411.33789 L 483.7793 113.38672 C 482.18641 50.591169 433.20833 -3.7895613e-14 370.39258 0 L 120.94531 0 z M 134.10547 43.435547 L 357.23242 43.435547 C 366.65478 43.435547 374.24023 51.864696 374.24023 62.333984 L 374.24023 81.681641 C 374.24023 92.150929 366.65478 100.57812 357.23242 100.57812 L 134.10547 100.57812 C 124.68311 100.57812 117.09766 92.150929 117.09766 81.681641 L 117.09766 62.333984 C 117.09766 51.864696 124.68311 43.435547 134.10547 43.435547 z M 72.320312 126.68164 L 419.01758 126.68164 C 433.77964 126.68164 445.66406 139.49656 445.66406 155.41406 L 445.66406 327.56055 C 445.66406 343.47805 433.77964 356.29297 419.01758 356.29297 L 72.320312 356.29297 C 57.558253 356.29297 45.673828 343.47805 45.673828 327.56055 L 45.673828 155.41406 C 45.673828 139.49656 57.558253 126.68164 72.320312 126.68164 z M 77.722656 400.57812 L 116.47266 400.57812 C 122.75423 400.57812 127.8125 405.63639 127.8125 411.91797 L 127.8125 450.66797 C 127.8125 456.94954 122.75423 462.00781 116.47266 462.00781 L 77.722656 462.00781 C 71.441081 462.00781 66.382813 456.94954 66.382812 450.66797 L 66.382812 411.91797 C 66.382813 405.63639 71.441081 400.57812 77.722656 400.57812 z M 374.86523 400.57812 L 413.61523 400.57812 C 419.89681 400.57812 424.95508 405.63639 424.95508 411.91797 L 424.95508 450.66797 C 424.95508 456.94954 419.89681 462.00781 413.61523 462.00781 L 374.86523 462.00781 C 368.58366 462.00781 363.52539 456.94954 363.52539 450.66797 L 363.52539 411.91797 C 363.52539 405.63639 368.58366 400.57812 374.86523 400.57812 z M 158.01953 406.79883 L 333.31836 406.79883 C 335.41222 406.79883 337.09766 408.48429 337.09766 410.57812 C 337.09766 412.67198 335.41222 414.35742 333.31836 414.35742 L 158.01953 414.35742 C 155.92567 414.35742 154.24023 412.67198 154.24023 410.57812 C 154.24023 408.48429 155.92567 406.79883 158.01953 406.79883 z M 158.01953 448.22852 L 333.31836 448.22852 C 335.41222 448.22852 337.09766 449.91395 337.09766 452.00781 C 337.09766 454.10167 335.41222 455.78711 333.31836 455.78711 L 158.01953 455.78711 C 155.92567 455.78711 154.24023 454.10167 154.24023 452.00781 C 154.24023 449.91395 155.92567 448.22852 158.01953 448.22852 z "
       style="opacity:1;vector-effect:none;fill:#d2d2d2;fill-opacity:1;stroke:none;stroke-width:5;stroke-linecap:round;stroke-linejoin:round;stroke-miterlimit:4;stroke-dasharray:none;stroke-dashoffset:0;stroke-opacity:1;paint-order:fill markers stroke" />
  </g>
</svg>
